!!!OTL: Der Schuhknecht (4-23), S. 33f
!!!id: P0584
**kern
*clefG2
*k[b-]
*F:
{4c
=1
8.f
16f
4f
4g
8a
8b-
=2
8b-
8cc
8b-
8a
4g}
8r
=3
{16g
16a
=4
4b-
8b-
8a
4.g
8a
=5
8.f
16f
8f
8d
4d}
8r
=6
{8g
=7
4g
4g
4f
8.b-
16b-
=8
8.a
16a
8g
8e
4f}
==
*-
!!!minrhy: 16
!!!meters: 4/4 ]  ZZ[3
!!!cut: Der Schuhknecht (4-23), S. 33f
!!!reg: Lothringen
!!!trd: PINCK, Louis: Verklingende Weisen Bd 4, Kassel 1939
!!!rhy1: X__  X_.XX__X__X_X_  X_X_X_X_X__0_
!!!rhy2: XX  X__X_X_X__.X_  X_.XX_X_X__0_
!!!key: P0584  16  F 4/4 ]  ZZ[3
!!!mod: HEPTATONIK IONISCH]  AMBITUS[8
!!!kad: 2-61
!!!akz: 1242_421-6_2131_
!!!fot: 'a__b__as"
!!!for: 'a__b__c__
!!!fok: '^a_^d_^d_
!! PHRAS[AUFTAKTIG]
!!!fkt: Brautwerbung, Standesunterschied, Mord
!!!bem1: nur 1 Strophe von drei notiert, da nur geringe
!!!bem2: Abweichungen
!! LOTH
!! VKL
!! PR[21] 2K[13] 2G[15] 3K[5] 3G[0] 4A[5] 4Ü[0] 5A[3] 6K[0] 6G[0]
!! 7K[0] 7G[0] 8A[0] MEHR[0] SI[41] ABS[39] SR[28] SP[13]
!! ST[8] 2k[13] 2g[15] 3k[5] 3g[0] 4d[3] 4ü[0] 5d[3] 6k[0] 6g[0]
!! 7k[0] 7g[0] 8d[0] mehr[0] si[38] dm[+3] sr[28] sp[10]
!! 1F[52] 2F[43] 3F[0] 4F[0] LF[0] 2P[5] 3P[0] 4P[0] TRI[0] DF[3] AB[42]
!! TF[0] U3K[0] U3[0] U4[0] U4Ü[0] U5[13] U6K[0] U6[3] U7K[8] U7[3]
!! N1[30] N2K[0] N2[25] N3K[13] N3[0] N4[8] N4Ü[0] N5[0] N6K[0] N6[0]
!!!n7k: 0] N7[0] O1[0] O2K[0] O2[0] O3K[0] O3[0] HÖ[0
